img/subtract-4.svg

<svg fill="none" height="24" viewBox="0 0 24 24" width="24" xmlns="http://www.w3.org/2000/svg"><path clip-rule="evenodd" d="m16.7623 18.2926c3.0071-.359 5.6254-2.2119 5.9545-3.9048.5185-2.667.4757-6.50822.4757-6.50822 0-5.20633-3.4111-6.73239-3.4111-6.73239-1.7198-.789921-4.6732-1.1221048-7.7414-1.14719h-.0754c-3.0683.0250852-6.01969.357269-7.7397 1.14719 0 0-3.411194 1.52606-3.411194 6.73239 0 .31563-.001632.64761-.00333.99321-.004716.9598-.009949 2.02461.017812 3.13611.123874 5.0915.933452 10.1095 5.640922 11.3555 2.17052.5745 4.03409.6947 5.53489.6122 2.7218-.1509 4.2496-.9713 4.2496-.9713l-.0897-1.9748s-1.945.6133-4.1294.5386c-2.16415-.0742-4.44884-.2334-4.79887-2.8905-.03232-.2334-.04849-.4829-.04849-.745 0 0 2.12449.5192 4.81686.6426 1.6463.0755 3.1902-.0965 4.7583-.2836zm2.4067-3.7053v-6.30396c0-1.28839-.3281-2.31223-.9869-3.0697-.6796-.75747-1.5695-1.14577-2.674-1.14577-1.2782 0-2.246.49123-2.8858 1.47382l-.6223 1.04284-.622-1.04284c-.64-.98259-1.60782-1.47382-2.88587-1.47382-1.10466 0-1.99453.3883-2.67403 1.14577-.65894.75747-.98698 1.78131-.98698 3.0697v6.30396h2.49752v-6.11867c0-1.28981.54269-1.94448 1.62821-1.94448 1.20025 0 1.80185.7766 1.80185 2.31223v3.34912h2.4828v-3.34912c0-1.53563.6015-2.31223 1.8017-2.31223 1.0855 0 1.6282.65467 1.6282 1.94448v6.11867z" fill="#000" fill-rule="evenodd"/></svg>

<svg width="24" height="24" viewBox="0 0 24 24" fill="none" xmlns="http://www.w3.org/2000/svg">
<path fill-rule="evenodd" clip-rule="evenodd" d="M16.7623 18.2926C19.7694 17.9336 22.3877 16.0807 22.7168 14.3878C23.2353 11.7208 23.1925 7.87958 23.1925 7.87958C23.1925 2.67325 19.7814 1.14719 19.7814 1.14719C18.0616 0.357269 15.1082 0.0250852 12.04 0H11.9646C8.8963 0.0250852 5.94491 0.357269 4.2249 1.14719C4.2249 1.14719 0.813706 2.67325 0.813706 7.87958C0.813706 8.19521 0.812074 8.52719 0.810376 8.87279C0.80566 9.83259 0.800427 10.8974 0.828188 12.0089C0.952062 17.1004 1.76164 22.1184 6.46911 23.3644C8.63963 23.9389 10.5032 24.0591 12.004 23.9766C14.7258 23.8257 16.2536 23.0053 16.2536 23.0053L16.1639 21.0305C16.1639 21.0305 14.2189 21.6438 12.0345 21.5691C9.87035 21.4949 7.58566 21.3357 7.23563 18.6786C7.20331 18.4452 7.18714 18.1957 7.18714 17.9336C7.18714 17.9336 9.31163 18.4528 12.004 18.5762C13.6503 18.6517 15.1942 18.4797 16.7623 18.2926ZM19.169 14.5873V8.28334C19.169 6.99495 18.8409 5.97111 18.1821 5.21364C17.5025 4.45617 16.6126 4.06787 15.5081 4.06787C14.2299 4.06787 13.2621 4.5591 12.6223 5.54169L12 6.58453L11.378 5.54169C10.738 4.5591 9.77018 4.06787 8.49213 4.06787C7.38747 4.06787 6.4976 4.45617 5.8181 5.21364C5.15916 5.97111 4.83112 6.99495 4.83112 8.28334V14.5873H7.32864V8.46863C7.32864 7.17882 7.87133 6.52415 8.95685 6.52415C10.1571 6.52415 10.7587 7.30075 10.7587 8.83638V12.1855H13.2415V8.83638C13.2415 7.30075 13.843 6.52415 15.0432 6.52415C16.1287 6.52415 16.6714 7.17882 16.6714 8.46863V14.5873H19.169Z" fill="black"/>
</svg>
